logo-icons/mail.svg

<svg xmlns="http://www.w3.org/2000/svg" viewBox="0 0 32 32" enable-background="new 0 0 32 32"><style type="text/css">.st0{fill:#7C666D;}</style><path class="st0" d="M7.6 9.1v14.4c0 .7.6 1.2 1.3 1.2h14.3c.7 0 1.3-.5 1.3-1.2v-14.4c0-.7-.6-1.2-1.3-1.2h-14.4c-.7 0-1.2.6-1.2 1.2zm2.7.5h11.4c.6 0 1.1.5 1.1 1v.8s-6.3 5.7-6.8 5.7l-6.8-5.7v-.8c0-.6.5-1 1.1-1zm9.8 6c1.5-1.2 2.7-2.4 2.7-2.4v7.6l-2.7-5.2zm-10.9-2.4s1.3 1.1 2.7 2.4l-2.7 5.4v-7.8zm11.9 9.8h-10.2c-.3 0-.6-.1-.8-.2l3.1-6.2c1.3 1.1 2.5 1.9 2.8 1.9.3 0 1.5-.9 2.8-1.9l3.2 6.1c-.3.3-.6.3-.9.3zm-5.1-23c-8.8 0-16 7.2-16 16s7.2 16 16 16 16-7.2 16-16-7.2-16-16-16zm0 30c-7.7 0-14-6.3-14-14s6.3-14 14-14 14 6.3 14 14-6.3 14-14 14z" id="Icons"/></svg>

<?xml version="1.0" encoding="utf-8"?>
<!-- Generator: Adobe Illustrator 19.1.0, SVG Export Plug-In . SVG Version: 6.00 Build 0)  -->
<!DOCTYPE svg PUBLIC "-//W3C//DTD SVG 1.1//EN" "http://www.w3.org/Graphics/SVG/1.1/DTD/svg11.dtd">
<svg version="1.1" xmlns="http://www.w3.org/2000/svg" xmlns:xlink="http://www.w3.org/1999/xlink" x="0px" y="0px"
	 viewBox="0 0 32 32" style="enable-background:new 0 0 32 32;" xml:space="preserve">
<style type="text/css">
	.st0{fill:#7C666D;}
</style>
<g id="Buttons">
</g>
<g id="Layer_1">
</g>
<g id="Icons">
	<g>
		<path class="st0" d="M7.6,9.1v14.4c0,0.7,0.6,1.2,1.3,1.2h14.3c0.7,0,1.3-0.5,1.3-1.2V9.1c0-0.7-0.6-1.2-1.3-1.2H8.8
			C8.1,7.9,7.6,8.5,7.6,9.1z M10.3,9.6h11.4c0.6,0,1.1,0.5,1.1,1v0.8c0,0-6.3,5.7-6.8,5.7c-0.5,0-6.8-5.7-6.8-5.7v-0.8
			C9.2,10,9.7,9.6,10.3,9.6z M20.1,15.6c1.5-1.2,2.7-2.4,2.7-2.4v7.6L20.1,15.6z M9.2,13.2c0,0,1.3,1.1,2.7,2.4L9.2,21V13.2z
			 M21.1,23H10.9c-0.3,0-0.6-0.1-0.8-0.2l3.1-6.2c1.3,1.1,2.5,1.9,2.8,1.9c0.3,0,1.5-0.9,2.8-1.9l3.2,6.1C21.7,23,21.4,23,21.1,23z"
			/>
	</g>
	<path class="st0" d="M16,0C7.2,0,0,7.2,0,16c0,8.8,7.2,16,16,16c8.8,0,16-7.2,16-16C32,7.2,24.8,0,16,0z M16,30C8.3,30,2,23.7,2,16
		C2,8.3,8.3,2,16,2s14,6.3,14,14C30,23.7,23.7,30,16,30z"/>
</g>
</svg>
